images/Exercism_files/external-site-github-10a8a76f55f4e6955417df6aa374dd48fab4392b.svg

<svg fill="none" viewBox="0 0 16 17" xmlns="http://www.w3.org/2000/svg"><path clip-rule="evenodd" d="m6.01762 16.0907c0-.1949-.00688-.7106-.01081-1.3954-2.22523.4955-2.69474-1.0998-2.69474-1.0998-.36391-.9477-.88842-1.2-.88842-1.2-.72636-.5091.055-.4985.055-.4985.80297.0579 1.22533.8455 1.22533.8455.71359 1.2533 1.87213.8918 2.32837.6818.07269-.5302.27945-.8918.50781-1.0967-1.77636-.207-3.64406-.911-3.64406-4.05418 0-.89533.31186-1.6275.8236-2.20105-.08202-.20747-.35704-1.04136.07857-2.17084 0 0 .67185-.22056 2.1997.84094.63796-.18178 1.32257-.27343 2.00326-.27645.67921.00302 1.36333.09467 2.00277.27645 1.5269-1.0615 2.1977-.84094 2.1977-.84094.4366 1.12898.1621 1.96287.0796 2.17084.5127.57355.8221 1.30572.8221 2.20105 0 3.15128-1.8706 3.84468-3.6529 4.04758.2878.2533.54318.7538.54318 1.5193 0 1.0967-.01032 1.9815-.01032 2.2504 0 .2195.14444.4743.55054.3942 3.176-1.0866 5.4661-4.1594 5.4661-7.78195 0-4.5305-3.5822-8.20295-8.00025-8.20295-4.41757 0-7.99975 3.67245-7.99975 8.20295.00049111 3.62365 2.29252 6.69835 5.4715 7.78295.39977.0751.54612-.1782.54612-.3952z" fill="#000" fill-rule="evenodd"/></svg>

<svg
  id="external-site-github"
  viewBox="0 0 16 17"
  fill="none"
  xmlns="http://www.w3.org/2000/svg"
>
  <path
    fill-rule="evenodd"
    clip-rule="evenodd"
    d="M6.01762 16.0907C6.01762 15.8958 6.01074 15.3801 6.00681 14.6953C3.78158 15.1908 3.31207 13.5955 3.31207 13.5955C2.94816 12.6478 2.42365 12.3955 2.42365 12.3955C1.69729 11.8864 2.47865 11.897 2.47865 11.897C3.28162 11.9549 3.70398 12.7425 3.70398 12.7425C4.41757 13.9958 5.57611 13.6343 6.03235 13.4243C6.10504 12.8941 6.3118 12.5325 6.54016 12.3276C4.7638 12.1206 2.8961 11.4166 2.8961 8.27342C2.8961 7.37809 3.20796 6.64592 3.7197 6.07237C3.63768 5.8649 3.36266 5.03101 3.79827 3.90153C3.79827 3.90153 4.47012 3.68097 5.99797 4.74247C6.63593 4.56069 7.32054 4.46904 8.00123 4.46602C8.68044 4.46904 9.36456 4.56069 10.004 4.74247C11.5309 3.68097 12.2017 3.90153 12.2017 3.90153C12.6383 5.03051 12.3638 5.8644 12.2813 6.07237C12.794 6.64592 13.1034 7.37809 13.1034 8.27342C13.1034 11.4247 11.2328 12.1181 9.4505 12.321C9.7383 12.5743 9.99368 13.0748 9.99368 13.8403C9.99368 14.937 9.98336 15.8218 9.98336 16.0907C9.98336 16.3102 10.1278 16.565 10.5339 16.4849C13.7099 15.3983 16 12.3255 16 8.70295C16 4.17245 12.4178 0.5 7.99975 0.5C3.58218 0.5 0 4.17245 0 8.70295C0.000491114 12.3266 2.29252 15.4013 5.4715 16.4859C5.87127 16.561 6.01762 16.3077 6.01762 16.0907Z"
    fill="black"
  />
</svg>
